X: 1
T: Burnt Leg, The
M: 4/4
L: 1/8
R: reel
K: Edor
|: Ee (3eee fedB | defa efdB | Ee (3eee fedB | dBAF (3EEE EE:|
|: (3GGF FE DEFA | (3BBB DE ABde | fedA DEFA | (3Bcd AF (3EEE EE :|
